icons/linear-ele-food-chicken.svg

<svg xmlns="http://www.w3.org/2000/svg" width="32px" height="32px" viewBox="0 0 32 32" version="1.1">
    <title>linear-ele-food-chicken</title>
    <g id="linear-ele-food-chicken" stroke-width="1" fill-rule="evenodd">
        <path d="M27.8129509,4.18553391 C31.4991564,7.87173937 30.1604272,12.3436643 25.6696149,15.6829863 C23.0659676,17.6190317 19.9503571,18.777328 17.5049306,18.7369363 L12.9637085,23.277417 C14.5258057,24.8395142 14.5258057,27.3721741 12.9637085,28.9342712 C11.4016113,30.4963684 8.86895142,30.4963684 7.30685425,28.9342712 C6.50213753,28.1295545 6.11197184,27.0672688 6.1363572,26.0127882 L6.1443707,25.8541141 L5.9856966,25.8621276 C4.99324427,25.8850785 3.99387807,25.5408147 3.20884211,24.8293361 L3.06421356,24.6916306 C1.5021164,23.1295334 1.5021164,20.5968735 3.06421356,19.0347763 C4.62631073,17.4726791 7.15897064,17.4726791 8.72106781,19.0347763 L13.2615651,14.4945546 C13.2208409,12.0489775 14.3791891,8.93287226 16.3154985,6.32886992 C19.6548205,1.83805757 24.1267454,0.499328444 27.8129509,4.18553391 Z M8.72106781,24.6916306 C7.94001923,25.4726791 7.94001923,26.7390091 8.72106781,27.5200577 C9.5021164,28.3011063 10.7684464,28.3011063 11.5494949,27.5200577 C12.3305435,26.7390091 12.3305435,25.4726791 11.5494949,24.6916306 C10.7684464,23.910582 9.5021164,23.910582 8.72106781,24.6916306 Z M4.47842712,20.4489899 C3.69737854,21.2300385 3.69737854,22.4963684 4.47842712,23.277417 C5.25947571,24.0584656 6.52580567,24.0584656 7.30685425,23.277417 C8.08790283,22.4963684 8.08790283,21.2300385 7.30685425,20.4489899 C6.52580567,19.6679413 5.25947571,19.6679413 4.47842712,20.4489899 Z M13.7822075,16.802447 L9.75691752,20.8274929 C9.85545539,21.1965206 9.90033784,21.5768951 9.89156486,21.9562593 L9.88425847,22.1142263 L10.0422255,22.1069199 C10.4215522,22.0981478 10.8018889,22.1430205 11.1708824,22.2415381 L15.1967373,18.2166429 C14.8909838,18.0568316 14.6161665,17.8588072 14.3779221,17.6205627 C14.1398593,17.3825 13.9419553,17.1079201 13.7822075,16.802447 Z M17.9204232,7.52227545 C15.4903523,10.7903018 14.5627652,14.9769787 15.7921356,16.2063492 C17.0215061,17.4357196 21.208183,16.5081325 24.4762094,14.0780616 C28.1108115,11.3754087 29.0470301,8.24804025 26.3987373,5.59974747 C23.7504446,2.95145468 20.6230761,3.88767327 17.9204232,7.52227545 Z" id="&#24418;&#29366;" fill-rule="nonzero" />
    </g>
</svg>

<svg xmlns="http://www.w3.org/2000/svg" viewBox="0 0 32 32"><path fill="currentColor" d="M27.813 4.186c3.686 3.686 2.347 8.158-2.143 11.497-2.604 1.936-5.72 3.094-8.165 3.054l-4.541 4.54a4 4 0 1 1-6.828 2.736l.008-.159-.158.008a3.988 3.988 0 0 1-2.777-1.033l-.145-.137a4 4 0 0 1 5.657-5.657l4.54-4.54c-.04-2.446 1.118-5.562 3.054-8.166 3.34-4.49 7.812-5.83 11.498-2.143M8.721 24.692a2 2 0 1 0 2.828 2.828 2 2 0 0 0-2.828-2.828m-4.243-4.243a2 2 0 1 0 2.829 2.828 2 2 0 0 0-2.829-2.828m9.304-3.647-4.025 4.025c.098.37.143.75.135 1.13l-.008.157.158-.007c.38-.009.76.036 1.129.135l4.026-4.025a3.334 3.334 0 0 1-.82-.596 3.334 3.334 0 0 1-.595-.819m4.138-9.28c-2.43 3.268-3.357 7.455-2.128 8.684 1.23 1.23 5.416.302 8.684-2.128 3.635-2.703 4.571-5.83 1.923-8.478-2.649-2.649-5.776-1.712-8.479 1.922"/></svg>
